public/cards/A-S.svg

<?xml version="1.0" encoding="UTF-8"?>
<svg width="360px" height="540px" viewBox="0 0 360 540" version="1.1" xmlns="http://www.w3.org/2000/svg" xmlns:xlink="http://www.w3.org/1999/xlink">
    <!-- Generator: Sketch 55.2 (78181) - https://sketchapp.com -->
    <title>A-S</title>
    <desc>Created with Sketch.</desc>
    <g id="Page-1" stroke="none" stroke-width="1" fill="none" fill-rule="evenodd">
        <g id="English_pattern_playing_cards_deck" transform="translate(0.000000, -1711.000000)" fill-rule="nonzero">
            <g id="A-S" transform="translate(0.000000, 1710.637800)">
                <rect id="rect6472-54" stroke="#000000" stroke-width="0.99999976" fill="#FFFFFF" x="0.5" y="0.86218" width="359" height="539" rx="29.944447"></rect>
                <path d="M27.5,30.36218 L18.5,80.36218 L23.5,80.36218 L25.84375,67.36218 L34.15625,67.36218 L36.5,80.36218 L41.5,80.36218 L32.5,30.36218 L27.5,30.36218 Z M30,44.26843 L33.25,62.36218 L26.75,62.36218 L30,44.26843 Z" id="path3497" fill="#000000"></path>
                <path d="M327.5,510.3622 L318.5,460.36216 L323.5,460.36216 L325.84375,473.36216 L334.15625,473.36216 L336.5,460.36216 L341.5,460.36216 L332.5,510.3622 L327.5,510.3622 Z M330,496.4559 L333.25,478.36218 L326.75,478.36218 L330,496.4559 Z" id="path3497-5" fill="#000000"></path>
                <path d="M185,281.36218 C187,285.36218 192,291.36218 197,291.36218 C206,291.36218 210,283.36218 210,273.36218 C210,263.36218 206,254.36218 197,254.36218 C192,254.36218 189,259.36218 186,262.36218 C185,263.36218 184,262.36218 185,261.36218 C188,258.36218 193,250.36218 193,243.36218 C193,235.36218 188,225.36218 180,225.36218 C172,225.36218 167,235.36218 167,243.36218 C167,250.36218 172,258.36218 175,261.36218 C176,262.36218 175,263.36218 174,262.36218 C171,259.36218 168,254.36218 163,254.36218 C154,254.36218 150,263.36218 150,273.36218 C150,283.36218 154,291.36218 163,291.36218 C168,291.36218 173,285.36218 175,281.36218 C176,280.36218 176,281.36218 176,282.36218 C175,290.36218 175,292.36218 174,298.36218 C173,304.36218 170,315.36218 170,315.36218 C175,313.36218 185,313.36218 190,315.36218 C190,315.36218 187,304.36218 186,298.36218 C185,292.36218 185,290.36218 184,282.36218 C184,281.36218 184,280.36218 185,281.36218 Z" id="path3037-95" fill="#000000"></path>
                <path d="M32.5,118.36218 C33.5,120.36218 36,123.36218 38.5,123.36218 C43,123.36218 45,119.36218 45,114.36218 C45,109.36218 43,104.86218 38.5,104.86218 C36,104.86218 34.5,107.36218 33,108.86218 C32.5,109.36218 32,108.86218 32.5,108.36218 C34,106.86218 36.5,102.86218 36.5,99.36218 C36.5,95.36218 34,90.36218 30,90.36218 C26,90.36218 23.5,95.36218 23.5,99.36218 C23.5,102.86218 26,106.86218 27.5,108.36218 C28,108.86218 27.5,109.36218 27,108.86218 C25.5,107.36218 24,104.86218 21.5,104.86218 C17,104.86218 15,109.36218 15,114.36218 C15,119.36218 17,123.36218 21.5,123.36218 C24,123.36218 26.5,120.36218 27.5,118.36218 C28,117.86218 28,118.36218 28,118.86218 C27.5,122.86218 27.5,123.86218 27,126.86218 C26.5,129.86218 25,135.36218 25,135.36218 C27.5,134.36218 32.5,134.36218 35,135.36218 C35,135.36218 33.5,129.86218 33,126.86218 C32.5,123.86218 32.5,122.86218 32,118.86218 C32,118.36218 32,117.86218 32.5,118.36218 Z" id="path3037-1-6" fill="#000000"></path>
                <path d="M332.5,422.36218 C333.5,420.36218 336,417.36218 338.5,417.36218 C343,417.36218 345,421.36218 345,426.36218 C345,431.36218 343,435.86218 338.5,435.86218 C336,435.86218 334.5,433.36218 333,431.86218 C332.5,431.36218 332,431.86218 332.5,432.36218 C334,433.86218 336.5,437.86218 336.5,441.36218 C336.5,445.36218 334,450.36218 330,450.36218 C326,450.36218 323.5,445.36218 323.5,441.36218 C323.5,437.86218 326,433.86218 327.5,432.36218 C328,431.86218 327.5,431.36218 327,431.86218 C325.5,433.36218 324,435.86218 321.5,435.86218 C317,435.86218 315,431.36218 315,426.36218 C315,421.36218 317,417.36218 321.5,417.36218 C324,417.36218 326.5,420.36218 327.5,422.36218 C328,422.86218 328,422.36218 328,421.86218 C327.5,417.86218 327.5,416.86218 327,413.86218 C326.5,410.86218 325,405.36218 325,405.36218 C327.5,406.36218 332.5,406.36218 335,405.36218 C335,405.36218 333.5,410.86218 333,413.86218 C332.5,416.86218 332.5,417.86218 332,421.86218 C332,422.36218 332,422.86218 332.5,422.36218 Z" id="path3037-1-7-4" fill="#000000"></path>
            </g>
        </g>
    </g>
</svg>

<svg width="360" height="540" xmlns="http://www.w3.org/2000/svg"><g transform="translate(0 -.362)" fill-rule="nonzero" fill="none"><rect stroke="#000" fill="#FFF" x=".5" y=".862" width="359" height="539" rx="29.944"/><path d="M27.5 30.362l-9 50h5l2.344-13h8.312l2.344 13h5l-9-50h-5zM30 44.268l3.25 18.094h-6.5L30 44.268zM327.5 510.362l-9-50h5l2.344 13h8.312l2.344-13h5l-9 50h-5zm2.5-13.906l3.25-18.094h-6.5l3.25 18.094zM185 281.362c2 4 7 10 12 10 9 0 13-8 13-18s-4-19-13-19c-5 0-8 5-11 8-1 1-2 0-1-1 3-3 8-11 8-18 0-8-5-18-13-18s-13 10-13 18c0 7 5 15 8 18 1 1 0 2-1 1-3-3-6-8-11-8-9 0-13 9-13 19s4 18 13 18c5 0 10-6 12-10 1-1 1 0 1 1-1 8-1 10-2 16s-4 17-4 17c5-2 15-2 20 0 0 0-3-11-4-17s-1-8-2-16c0-1 0-2 1-1zM32.5 118.362c1 2 3.5 5 6 5 4.5 0 6.5-4 6.5-9s-2-9.5-6.5-9.5c-2.5 0-4 2.5-5.5 4-.5.5-1 0-.5-.5 1.5-1.5 4-5.5 4-9 0-4-2.5-9-6.5-9s-6.5 5-6.5 9c0 3.5 2.5 7.5 4 9 .5.5 0 1-.5.5-1.5-1.5-3-4-5.5-4-4.5 0-6.5 4.5-6.5 9.5s2 9 6.5 9c2.5 0 5-3 6-5 .5-.5.5 0 .5.5-.5 4-.5 5-1 8s-2 8.5-2 8.5c2.5-1 7.5-1 10 0 0 0-1.5-5.5-2-8.5s-.5-4-1-8c0-.5 0-1 .5-.5zM332.5 422.362c1-2 3.5-5 6-5 4.5 0 6.5 4 6.5 9s-2 9.5-6.5 9.5c-2.5 0-4-2.5-5.5-4-.5-.5-1 0-.5.5 1.5 1.5 4 5.5 4 9 0 4-2.5 9-6.5 9s-6.5-5-6.5-9c0-3.5 2.5-7.5 4-9 .5-.5 0-1-.5-.5-1.5 1.5-3 4-5.5 4-4.5 0-6.5-4.5-6.5-9.5s2-9 6.5-9c2.5 0 5 3 6 5 .5.5.5 0 .5-.5-.5-4-.5-5-1-8s-2-8.5-2-8.5c2.5 1 7.5 1 10 0 0 0-1.5 5.5-2 8.5s-.5 4-1 8c0 .5 0 1 .5.5z" fill="#000"/></g></svg>
